svgs/light/vr-cardboard.svg

<svg xmlns="http://www.w3.org/2000/svg" viewBox="0 0 640 512"><!-- Font Awesome Pro 5.15.3 by @fontawesome - https://fontawesome.com License - https://fontawesome.com/license (Commercial License) --><path d="M592 64H48C21.49 64 0 85.49 0 112v288c0 26.51 21.49 48 48 48h165.82c25.19 0 48.03-14.77 58.36-37.74l16.56-36.8C294.66 360.31 306.76 352 320 352s25.34 8.31 31.26 21.46l16.56 36.8C378.15 433.23 401 448 426.18 448H592c26.51 0 48-21.49 48-48V112c0-26.51-21.49-48-48-48zm16 336c0 8.82-7.18 16-16 16H426.18c-12.57 0-24.02-7.41-29.18-18.87l-16.56-36.8C369.42 335.83 345.69 320 320 320s-49.42 15.83-60.44 40.33L243 397.13c-5.16 11.46-16.61 18.87-29.18 18.87H48c-8.82 0-16-7.18-16-16V112c0-8.82 7.18-16 16-16h544c8.82 0 16 7.18 16 16v288zM176 160c-44.18 0-80 35.81-80 80 0 44.18 35.82 80 80 80s80-35.82 80-80-35.82-80-80-80zm0 128c-26.47 0-48-21.53-48-48s21.53-48 48-48 48 21.53 48 48-21.53 48-48 48zm288-128c-44.18 0-80 35.81-80 80 0 44.18 35.82 80 80 80s80-35.82 80-80-35.82-80-80-80zm0 128c-26.47 0-48-21.53-48-48s21.53-48 48-48 48 21.53 48 48-21.53 48-48 48z"/></svg>

<svg xmlns="http://www.w3.org/2000/svg" viewBox="0 0 640 512"><!--! Font Awesome Pro 6.0.0-alpha3 by @fontawesome - https://fontawesome.com License - https://fontawesome.com/license (Commercial License) --><path d="M464 160C419.9 160 384 195.8 384 240c0 44.13 35.88 80 80 80S544 284.1 544 240S508.1 160 464 160zM464 288C437.5 288 416 266.5 416 240S437.5 192 464 192S512 213.5 512 240S490.5 288 464 288zM576 64H64c-35.35 0-64 28.65-64 64v256c0 35.35 28.65 64 64 64L213.6 448c25.22 0 48.11-14.77 58.51-37.75l16.64-36.77C294.6 360.2 306.8 352 320 352s25.36 8.234 31.23 21.48l16.64 36.77C378.3 433.2 401.2 448 426.4 448L576 448c35.35 0 64-28.65 64-64v-256C640 92.65 611.3 64 576 64zM608 384c0 17.67-14.33 32-32 32h-149.9c-12.57 0-23.96-7.375-29.11-18.84l-16.52-36.79c-11.12-24.5-34.75-40.37-60.5-40.37s-49.38 15.87-60.5 40.37l-16.52 36.79C237.8 408.6 226.4 416 213.9 416H64c-17.67 0-32-14.33-32-32V128c0-17.67 14.33-32 32-32h512c17.67 0 32 14.33 32 32V384zM176 160C131.9 160 96 195.8 96 240C96 284.1 131.9 320 176 320S256 284.1 256 240S220.1 160 176 160zM176 288C149.5 288 128 266.5 128 240S149.5 192 176 192S224 213.5 224 240S202.5 288 176 288z"/></svg>
